svg/Outline/paw.svg

<svg viewBox="0 0 24 24" xmlns="http://www.w3.org/2000/svg" width="24" height="24"><path fill-rule="evenodd" d="M12 10.4c.91 0 1.62.27 2.26.88.56.55 1.06 1.36 1.65 2.34l.16.23c.38.5.92.84 1.57 1.23.66.4 1.62.94 2.02 2v.01l.01.03q.21.56.22 1.15l-.02.3a3 3 0 0 1-2.92 2.76c-.87 0-1.85-.34-2.65-.6a8 8 0 0 0-2.3-.51 8 8 0 0 0-2.3.5c-.8.27-1.78.61-2.65.61a3 3 0 0 1-2.93-2.75l-.01-.31q0-.61.21-1.16c.4-1.08 1.37-1.63 2.03-2.03a4.6 4.6 0 0 0 1.73-1.46l.43-.7c.42-.67.8-1.23 1.23-1.63a3 3 0 0 1 2.26-.9m0 1.8c-.48 0-.73.1-1.02.38-.35.35-.73.93-1.36 1.97-.65 1.08-1.64 1.65-2.34 2.07-.78.48-1.13.73-1.26 1.1l-.01.02v.02q-.1.24-.1.5v.15c.07.67.6 1.12 1.14 1.12.52 0 1.18-.22 2.1-.51.83-.27 1.86-.6 2.85-.6 1 0 2.03.33 2.86.6.9.3 1.57.51 2.1.51.57 0 1.13-.51 1.13-1.26l-.01-.13a1 1 0 0 0-.1-.38v-.03c-.14-.39-.48-.64-1.27-1.1-.7-.43-1.68-1-2.34-2.08-.63-1.04-1-1.63-1.36-1.97-.28-.27-.53-.38-1.01-.38M3.63 7.24a3 3 0 0 1 1.93.79q.84.7 1.32 1.86c.37.88.49 1.82.33 2.64-.15.8-.6 1.62-1.47 1.97q-.4.15-.83.16c-.72 0-1.4-.34-1.93-.8q-.72-.62-1.2-1.58L1.67 12a4.7 4.7 0 0 1-.33-2.64c.15-.8.6-1.62 1.48-1.97l.2-.07q.3-.09.62-.08m-.08 1.8-.08.02c-.11.05-.29.2-.37.64-.08.42-.03 1 .22 1.61q.35.78.83 1.19c.32.27.6.36.76.36l.09-.01.07-.02c.12-.05.3-.2.38-.63.07-.43.02-1-.23-1.62a3 3 0 0 0-.83-1.19c-.32-.27-.6-.35-.76-.35zm16.81-1.8q.31 0 .62.08l.2.07.16.07a2.6 2.6 0 0 1 1.32 1.9c.15.82.04 1.76-.33 2.64q-.48 1.15-1.32 1.87c-.54.45-1.21.79-1.93.79q-.42 0-.82-.16c-.88-.35-1.33-1.16-1.48-1.97a4.7 4.7 0 0 1 .33-2.64c.3-.75.77-1.39 1.3-1.85.54-.46 1.2-.8 1.92-.8zm-.08 1.8a1.4 1.4 0 0 0-.69.36q-.47.41-.82 1.18c-.25.61-.3 1.2-.22 1.62s.26.58.37.63l.15.03h.08c.16-.03.41-.12.69-.36.31-.27.62-.67.83-1.19.25-.6.3-1.19.22-1.61s-.26-.59-.37-.64l-.16-.02zM8.73 2.67c.84 0 1.54.49 2.02 1.09.49.6.82 1.42.95 2.3l.04.36c.07.82-.05 1.61-.35 2.27-.33.73-.95 1.42-1.87 1.55l-.3.02c-.85 0-1.55-.49-2.03-1.09a5 5 0 0 1-.9-1.97l-.05-.33a5 5 0 0 1 .31-2.62c.33-.74.95-1.42 1.87-1.56zm-.04 1.8c-.1.02-.32.11-.5.52a3 3 0 0 0-.17 1.62l.04.22q.17.77.54 1.22c.27.34.5.41.61.41h.04c.11-.01.32-.11.5-.51q.24-.54.2-1.38l-.03-.24a3 3 0 0 0-.58-1.45c-.27-.34-.5-.41-.61-.41zm6.74-1.8.14.02c.92.13 1.54.82 1.88 1.56s.45 1.68.31 2.62c-.13.88-.46 1.7-.95 2.3a2.6 2.6 0 0 1-2.02 1.1l-.3-.03h-.01c-.92-.13-1.54-.82-1.87-1.55a5 5 0 0 1-.31-2.62l.06-.33c.15-.76.46-1.45.89-1.98a2.6 2.6 0 0 1 2.02-1.1zm-.26 1.82q-.2.03-.51.4c-.23.28-.44.7-.54 1.21l-.04.23a3 3 0 0 0 .17 1.62c.18.4.4.5.5.51h.04c.1 0 .34-.07.61-.4.26-.34.5-.84.58-1.45l.03-.24a3 3 0 0 0-.2-1.38c-.19-.4-.4-.5-.5-.52h-.04z" clip-rule="evenodd"/></svg>

<svg viewBox="0 0 24 24" xmlns="http://www.w3.org/2000/svg" width="24" height="24"><path fill-rule="evenodd" d="M12 10.4C12.91 10.4 13.62 10.67 14.26 11.28C14.82 11.83 15.32 12.64 15.91 13.62L16.07 13.85C16.45 14.35 16.99 14.69 17.64 15.08C18.3 15.48 19.26 16.02 19.66 17.08L19.67 17.12Q19.88 17.68 19.89 18.27L19.87 18.57A3 3 0 0 1 16.95 21.33C16.08 21.33 15.1 20.99 14.3 20.73A8 8 0 0 0 12 20.22A8 8 0 0 0 9.7 20.72C8.9 20.99 7.92 21.33 7.05 21.33A3 3 0 0 1 4.12 18.58L4.11 18.27Q4.11 17.66 4.32 17.11C4.72 16.03 5.69 15.48 6.35 15.08A4.6 4.6 0 0 0 8.08 13.62L8.51 12.92C8.93 12.25 9.31 11.69 9.74 11.29A3 3 0 0 1 12 10.39M12 12.19C11.52 12.19 11.27 12.29 10.98 12.57C10.63 12.92 10.25 13.5 9.62 14.54C8.97 15.62 7.98 16.19 7.28 16.61C6.5 17.09 6.15 17.34 6.02 17.71L6.01 17.75Q5.91 17.99 5.91 18.25L5.91 18.4C5.98 19.07 6.51 19.52 7.05 19.52C7.57 19.52 8.23 19.3 9.15 19.01C9.98 18.74 11.01 18.41 12 18.41C13 18.41 14.03 18.74 14.86 19.01C15.76 19.31 16.43 19.52 16.96 19.52C17.53 19.52 18.09 19.01 18.09 18.26L18.08 18.13A1 1 0 0 0 17.98 17.75L17.98 17.72C17.84 17.33 17.5 17.08 16.71 16.62C16.01 16.19 15.03 15.62 14.37 14.54C13.74 13.5 13.37 12.91 13.01 12.57C12.73 12.3 12.48 12.19 12 12.19M3.63 7.24a3 3 0 0 1 1.93.79q.84.7 1.32 1.86c.37.88.49 1.82.33 2.64-.15.8-.6 1.62-1.47 1.97q-.4.15-.83.16c-.72 0-1.4-.34-1.93-.8q-.72-.62-1.2-1.58L1.67 12a4.7 4.7 0 0 1-.33-2.64c.15-.8.6-1.62 1.48-1.97l.2-.07q.3-.09.62-.08M3.56 9.04L3.48 9.06C3.37 9.11 3.19 9.26 3.11 9.7C3.03 10.12 3.08 10.7 3.33 11.31Q3.68 12.09 4.16 12.5C4.48 12.77 4.76 12.86 4.92 12.86L5.08 12.83C5.2 12.78 5.38 12.63 5.46 12.2C5.53 11.77 5.48 11.2 5.23 10.58A3 3 0 0 0 4.4 9.39C4.08 9.12 3.8 9.04 3.64 9.04ZM20.37 7.24Q20.68 7.24 20.99 7.32L21.35 7.46A2.6 2.6 0 0 1 22.67 9.36C22.82 10.18 22.71 11.12 22.34 12Q21.86 13.15 21.02 13.87C20.48 14.32 19.81 14.66 19.09 14.66Q18.67 14.66 18.27 14.5C17.39 14.15 16.94 13.34 16.79 12.53A4.7 4.7 0 0 1 17.12 9.89C17.42 9.14 17.89 8.5 18.42 8.04C18.96 7.58 19.62 7.24 20.34 7.24ZM20.29 9.04A1.4 1.4 0 0 0 19.6 9.4Q19.13 9.81 18.78 10.58C18.53 11.19 18.48 11.78 18.56 12.2C18.64 12.62 18.82 12.78 18.93 12.83L19.16 12.86C19.32 12.83 19.57 12.74 19.85 12.5C20.16 12.23 20.47 11.83 20.68 11.31C20.93 10.71 20.98 10.12 20.9 9.7C20.82 9.28 20.64 9.11 20.53 9.06L20.37 9.04ZM8.73 2.67c.84 0 1.54.49 2.02 1.09.49.6.82 1.42.95 2.3l.04.36c.07.82-.05 1.61-.35 2.27-.33.73-.95 1.42-1.87 1.55l-.3.02c-.85 0-1.55-.49-2.03-1.09a5 5 0 0 1-.9-1.97l-.05-.33a5 5 0 0 1 .31-2.62c.33-.74.95-1.42 1.87-1.56zm-.04 1.8c-.1.02-.32.11-.5.52a3 3 0 0 0-.17 1.62l.04.22q.17.77.54 1.22c.27.34.5.41.61.41h.04c.11-.01.32-.11.5-.51q.24-.54.2-1.38l-.03-.24a3 3 0 0 0-.58-1.45c-.27-.34-.5-.41-.61-.41zM15.43 2.67L15.57 2.69C16.49 2.82 17.11 3.51 17.45 4.25C17.79 4.99 17.9 5.93 17.76 6.87C17.63 7.75 17.3 8.57 16.81 9.17A2.6 2.6 0 0 1 14.79 10.27L14.48 10.24C13.56 10.11 12.94 9.42 12.61 8.69A5 5 0 0 1 12.3 6.07L12.36 5.74C12.51 4.98 12.82 4.29 13.25 3.76A2.6 2.6 0 0 1 15.27 2.66ZM15.17 4.49q-.2.03-.51.4c-.23.28-.44.7-.54 1.21l-.04.23a3 3 0 0 0 .17 1.62c.18.4.4.5.5.51h.04c.1 0 .34-.07.61-.4.26-.34.5-.84.58-1.45l.03-.24a3 3 0 0 0-.2-1.38c-.19-.4-.4-.5-.5-.52h-.04z" clip-rule="evenodd"/></svg>
